src/apps/symbolic/applications-system-symbolic.svg

<?xml version="1.0" encoding="UTF-8" standalone="no"?>
<svg
   id="svg1"
   width="16"
   height="16"
   version="1.1"
   sodipodi:docname="applications-system-symbolic.svg"
   inkscape:version="1.4 (e7c3feb100, 2024-10-09)"
   xmlns:inkscape="http://www.inkscape.org/namespaces/inkscape"
   xmlns:sodipodi="http://sodipodi.sourceforge.net/DTD/sodipodi-0.dtd"
   xmlns="http://www.w3.org/2000/svg"
   xmlns:svg="http://www.w3.org/2000/svg">
  <defs
     id="defs1" />
  <sodipodi:namedview
     id="namedview1"
     pagecolor="#ffffff"
     bordercolor="#111111"
     borderopacity="1"
     inkscape:showpageshadow="0"
     inkscape:pageopacity="0"
     inkscape:pagecheckerboard="1"
     inkscape:deskcolor="#d1d1d1"
     inkscape:zoom="72.375"
     inkscape:cx="8.0069085"
     inkscape:cy="8"
     inkscape:window-width="2560"
     inkscape:window-height="1371"
     inkscape:window-x="0"
     inkscape:window-y="0"
     inkscape:window-maximized="1"
     inkscape:current-layer="svg1" />
  <path
     id="path1-5"
     style="paint-order:fill markers stroke;fill:#363636;fill-opacity:1"
     d="M 7.4199219 0 C 7.1970519 0 6.88444 0.061672875 6.625 0.27929688 C 6.36556 0.49691688 6.2415275 0.81721498 6.2109375 1.046875 L 6.2304688 0.9453125 L 5.8886719 2.3671875 C 5.7492819 2.4183585 5.6180181 2.4734631 5.4863281 2.5332031 L 4.2480469 1.7753906 A 1.0001 1.0001 0 0 0 4.2402344 1.7714844 C 4.0616444 1.6642244 3.7659656 1.5527469 3.4472656 1.5917969 C 3.1285656 1.6308509 2.8922494 1.796715 2.7558594 1.921875 A 1.0001 1.0001 0 0 0 2.7304688 1.9453125 L 1.9101562 2.7519531 A 1.0001 1.0001 0 0 0 1.8730469 2.7890625 C 1.7183369 2.9580125 1.5630019 3.245115 1.5449219 3.546875 C 1.5268419 3.848635 1.6268 4.0947794 1.71875 4.2558594 A 1.0001 1.0001 0 0 0 1.7382812 4.2871094 L 2.5078125 5.5273438 C 2.4524825 5.6482138 2.4086819 5.7766394 2.3574219 5.9121094 L 0.94921875 6.2441406 A 1.0001 1.0001 0 0 0 0.93554688 6.2460938 C 0.77365688 6.2866218 0.4958775 6.3812175 0.2734375 6.6484375 C 0.0509975 6.9156575 0 7.2421562 0 7.4414062 L 0 8.5898438 C 0 8.8124338 0.062036875 9.1232225 0.27929688 9.3828125 C 0.49655688 9.6424025 0.81501188 9.766155 1.0449219 9.796875 L 0.9453125 9.7792969 L 2.3691406 10.119141 C 2.4159606 10.244431 2.462605 10.364892 2.515625 10.482422 L 1.7441406 11.740234 C 1.6411806 11.907634 1.5297306 12.168788 1.5566406 12.492188 C 1.5835506 12.815587 1.7692987 13.114147 1.9492188 13.279297 L 2.7324219 14.0625 C 2.8868319 14.21712 3.1415913 14.387061 3.4570312 14.425781 C 3.7724713 14.464501 4.06682 14.358914 4.25 14.246094 L 5.5019531 13.474609 C 5.6261231 13.532089 5.7504694 13.585996 5.8808594 13.634766 L 6.2304688 15.066406 L 6.2109375 14.960938 C 6.2419165 15.193518 6.3795506 15.533644 6.6503906 15.746094 C 6.9212306 15.958544 7.2167519 16 7.4199219 16 L 8.5878906 16 C 8.7910706 16 9.1006244 15.949658 9.3652344 15.736328 C 9.6298444 15.522998 9.7458963 15.221621 9.7851562 15.025391 L 9.7773438 15.066406 L 10.126953 13.636719 C 10.257543 13.587359 10.383009 13.533722 10.505859 13.476562 L 11.748047 14.246094 A 1.0001 1.0001 0 0 0 11.75 14.246094 C 11.93326 14.359024 12.227539 14.464491 12.542969 14.425781 C 12.858399 14.387061 13.113158 14.21709 13.267578 14.0625 A 1.0001 1.0001 0 0 0 13.271484 14.060547 L 14.050781 13.271484 C 14.219621 13.116564 14.415319 12.817741 14.443359 12.488281 C 14.471399 12.158821 14.360367 11.912016 14.273438 11.759766 A 1.0001 1.0001 0 0 0 14.255859 11.730469 L 13.486328 10.484375 C 13.540108 10.367055 13.587176 10.246664 13.634766 10.121094 L 15.0625 9.7792969 L 14.962891 9.796875 C 15.195741 9.765757 15.534054 9.6283519 15.746094 9.3574219 C 15.958134 9.0864919 16 8.7927837 16 8.5898438 L 16 7.4414062 C 16 7.2607162 15.969303 6.9556313 15.751953 6.6757812 C 15.534603 6.3959212 15.238936 6.2878238 15.072266 6.2460938 A 1.0001 1.0001 0 0 0 15.058594 6.2441406 L 13.650391 5.9121094 C 13.597651 5.7751594 13.55538 5.6454006 13.5 5.5253906 L 14.253906 4.3007812 C 14.358926 4.1372212 14.481377 3.880695 14.460938 3.546875 C 14.440497 3.213055 14.246356 2.9014181 14.066406 2.7363281 L 13.275391 1.9589844 C 13.130771 1.8142344 12.871434 1.6347631 12.552734 1.5957031 C 12.234044 1.5566421 11.965704 1.6590547 11.802734 1.7460938 A 1.0001 1.0001 0 0 0 11.751953 1.7753906 L 10.517578 2.5332031 C 10.392188 2.4752961 10.2613 2.4253569 10.125 2.3730469 L 9.7890625 0.99414062 C 9.7526715 0.80004062 9.6459462 0.49817062 9.3789062 0.27539062 C 9.1118762 0.052610625 8.7911406 -7.4014868e-17 8.5878906 0 L 7.4199219 0 z M 7.4199219 1 L 8.5878906 1 C 8.7195206 1 8.7814275 1.0537154 8.8046875 1.1777344 L 9.2695312 3.09375 C 9.7728613 3.21778 10.230028 3.4255181 10.617188 3.6425781 L 12.275391 2.6269531 C 12.391511 2.5649321 12.475409 2.5729916 12.568359 2.6660156 L 13.388672 3.4726562 C 13.481622 3.5579282 13.481799 3.6512356 13.412109 3.7597656 L 12.390625 5.4179688 C 12.576435 5.7668088 12.809571 6.2481881 12.925781 6.7675781 L 14.830078 7.2167969 C 14.953948 7.2478079 15 7.3018703 15 7.4414062 L 15 8.5898438 C 15 8.7216137 14.946198 8.7911206 14.830078 8.8066406 L 12.917969 9.2636719 C 12.801759 9.7520319 12.59182 10.225514 12.375 10.589844 L 13.404297 12.255859 C 13.466237 12.364339 13.465997 12.449866 13.373047 12.535156 L 12.560547 13.357422 C 12.467597 13.450472 12.374057 13.456531 12.273438 13.394531 L 10.609375 12.365234 C 10.222255 12.605574 9.7805312 12.797775 9.2695312 12.921875 L 8.8046875 14.830078 C 8.7814285 14.946328 8.7195166 15 8.5878906 15 L 7.4199219 15 C 7.2882919 15 7.218615 14.946328 7.203125 14.830078 L 6.7382812 12.921875 C 6.2504513 12.805545 5.7777775 12.605574 5.3984375 12.365234 L 3.7265625 13.394531 C 3.6258925 13.456531 3.5323831 13.450472 3.4394531 13.357422 L 2.6269531 12.542969 C 2.5340331 12.457679 2.5337531 12.364412 2.5957031 12.263672 L 3.625 10.589844 C 3.40819 10.217824 3.2059938 9.7520919 3.0898438 9.2636719 L 1.1777344 8.8066406 C 1.0615744 8.7911176 1 8.7216148 1 8.5898438 L 1 7.4414062 C 1 7.3018763 1.0538344 7.2478169 1.1777344 7.2167969 L 3.0839844 6.7675781 C 3.2001344 6.2481981 3.4236175 5.7667687 3.6171875 5.4179688 L 2.5878906 3.7597656 C 2.5259406 3.6512356 2.5261481 3.5578537 2.6113281 3.4648438 L 3.4316406 2.6582031 C 3.5245606 2.5729311 3.6104125 2.5571831 3.7265625 2.6269531 L 5.3828125 3.6425781 C 5.7312725 3.4255281 6.2505038 3.2099675 6.7460938 3.0859375 L 7.203125 1.1777344 C 7.218613 1.0614644 7.2882889 1 7.4199219 1 z M 8 5 A 3 3 0 0 0 5 8 A 3 3 0 0 0 8 11 A 3 3 0 0 0 11 8 A 3 3 0 0 0 8 5 z M 8 6 A 2 2 0 0 1 10 8 A 2 2 0 0 1 8 10 A 2 2 0 0 1 6 8 A 2 2 0 0 1 8 6 z " />
</svg>

<?xml version="1.0" encoding="UTF-8"?>
<svg id="svg1" width="16" height="16" version="1.1" xmlns="http://www.w3.org/2000/svg">
 <path id="path1" class="ColorScheme-Text" d="m10.248 0.36014c-0.051289-0.039868-0.11079-0.068871-0.17768-0.086795-0.26756-0.071692-0.54013 0.085109-0.61182 0.35267l-0.13648 0.50983a7 7 0 0 0-1.2795-0.12756c-0.014799-0.0013-0.02721-0.008666-0.042357-0.008668-0.015497 1.7e-6 -0.028275 0.007404-0.043403 0.00877a7 7 0 0 0-1.2789 0.12538l-0.13583-0.50692c-0.071693-0.26756-0.34474-0.42521-0.61231-0.35352-0.26756 0.071693-0.42521 0.34474-0.35352 0.61231l0.13511 0.50425a7 7 0 0 0-1.2116 0.5477 7 7 0 0 0-1.0808 0.77426l-0.36901-0.36867c-0.19587-0.19587-0.51032-0.19538-0.70619 4.923e-4 -0.19587 0.19587-0.19538 0.51032 4.923e-4 0.70619l0.36973 0.37133a7 7 0 0 0-1.3249 2.291l-0.50378-0.13524c-0.26756-0.071692-0.54013 0.085109-0.61182 0.35267-0.071692 0.26756 0.085109 0.54013 0.35267 0.61182l0.50983 0.13648a7 7 0 0 0-0.00209 2.6442l-0.50692 0.13583c-0.26756 0.071693-0.42521 0.34474-0.35352 0.61231 0.071693 0.26756 0.34474 0.42521 0.61231 0.35352l0.50425-0.13512a7 7 0 0 0 0.5477 1.2116 7 7 0 0 0 0.77426 1.0808l-0.36867 0.36901c-0.19587 0.19587-0.19538 0.51032 4.923e-4 0.70619 0.19587 0.19586 0.51032 0.19538 0.70619-4.93e-4l0.37133-0.36973a7 7 0 0 0 2.2909 1.325l-0.13524 0.50378c-0.071692 0.26756 0.085109 0.54013 0.35267 0.61182 0.26756 0.0717 0.54013-0.08511 0.61182-0.35267l0.13648-0.50982a7 7 0 0 0 2.6442 0.0021l0.13583 0.50692c0.071693 0.26756 0.34474 0.42521 0.61231 0.35352 0.26756-0.07169 0.42521-0.34474 0.35352-0.61231l-0.13511-0.50426a7 7 0 0 0 1.2116-0.5477 7 7 0 0 0 1.0808-0.77426l0.36901 0.36867c0.19587 0.19586 0.51032 0.19538 0.70619-4.92e-4 0.19586-0.19587 0.19538-0.51031-4.92e-4 -0.70619l-0.36973-0.37133a7 7 0 0 0 0.75739-1.0579c0.0053-8e-3 0.01392-0.01231 0.01878-0.02073 0.0063-0.01084 0.0055-0.02326 0.01082-0.03435a7 7 0 0 0 0.53798-1.1779l0.50378 0.13524c0.26756 0.07169 0.54013-0.08511 0.61182-0.35267 0.0717-0.26756-0.08511-0.54013-0.35267-0.61182l-0.50982-0.13648a7 7 0 0 0 0.0021-2.6442l0.50691-0.13584c0.26756-0.071693 0.42521-0.34474 0.35352-0.61231s-0.34474-0.42521-0.61231-0.35352l-0.50426 0.13511a7 7 0 0 0-0.5477-1.2116 7 7 0 0 0-0.77426-1.0808l0.36867-0.36901c0.19586-0.19587 0.19538-0.51032-4.93e-4 -0.70619-0.1959-0.19594-0.51034-0.19545-0.70621 4.19e-4l-0.37133 0.36973a7 7 0 0 0-2.291-1.3249l0.13524-0.50378c0.05377-0.20067-0.02113-0.40542-0.17499-0.52503zm0.50376 2.3071a6 6 0 0 1 2.4439 2.3334 6 6 0 0 1 0.22678 5.5526l-3.498-2.0195a2 2 0 0 0-0.92455-2.2658 2 2 0 0 0-0.49887-0.20232l-6.704e-4 -4.0418a6 6 0 0 1 2.2514 0.64354zm-3.2526-0.63971 8.883e-4 4.0375a2 2 0 0 0-1.2322 0.93497 2 2 0 0 0-0.19531 1.5336l-3.4979 2.0196a6 6 0 0 1 2.4261-7.7489 6 6 0 0 1 2.4985-0.77671zm1.0008 5.1064a1 1 0 0 1 0.36603 1.366 1 1 0 0 1-1.366 0.36603 1 1 0 0 1-0.36603-1.366 1 1 0 0 1 1.366-0.36603zm0.92619 2.2668 3.4962 2.0185a6 6 0 0 1-1.9232 1.7764 6 6 0 0 1-7.9236-1.7759l3.497-2.018a2 2 0 0 0 0.42733 0.33016 2 2 0 0 0 2.4262-0.33129z" color="#363636" display="none" fill="currentColor"/>
 <path id="path1-5" d="m7.9999 5.0001a3 3 0 0 0-3 3 3 3 0 0 0 3 3 3 3 0 0 0 3-3 3 3 0 0 0-3-3zm0 1a2 2 0 0 1 2 2 2 2 0 0 1-2 2 2 2 0 0 1-2-2 2 2 0 0 1 2-2z" fill="#363636" style="paint-order:fill markers stroke"/>
 <path id="path2" d="m7.4198 1.0158e-4c-0.22287 0-0.53548 0.061676-0.79492 0.2793-0.25944 0.21762-0.38347 0.53792-0.41406 0.76758l0.019531-0.10156-0.3418 1.4219c-0.13939 0.051171-0.27065 0.10628-0.40234 0.16602l-1.2383-0.75781a1.0001 1.0001 0 0 0-0.0078-0.00391c-0.17859-0.10726-0.47427-0.21874-0.79297-0.17969-0.3187 0.039054-0.55502 0.20492-0.69141 0.33008a1.0001 1.0001 0 0 0-0.02539 0.023438l-0.82031 0.80664a1.0001 1.0001 0 0 0-0.03711 0.037109c-0.15471 0.16895-0.31004 0.45605-0.32812 0.75781s0.08188 0.5479 0.17383 0.70898a1.0001 1.0001 0 0 0 0.01953 0.03125l0.76953 1.2402c-0.05533 0.12087-0.09913 0.2493-0.15039 0.38477l-1.4082 0.33203a1.0001 1.0001 0 0 0-0.01367 0.00195c-0.16189 0.040528-0.43967 0.13512-0.66211 0.40234s-0.27344 0.59372-0.27344 0.79297v1.1484c0 0.22259 0.06204 0.53338 0.2793 0.79297s0.53572 0.38334 0.76563 0.41406l-0.09961-0.017578 1.4238 0.33984c0.04682 0.12529 0.09346 0.24575 0.14648 0.36328l-0.77148 1.2578c-0.10296 0.1674-0.21441 0.42855-0.1875 0.75195s0.21266 0.62196 0.39258 0.78711l0.7832 0.7832c0.15441 0.15462 0.40917 0.32456 0.72461 0.36328s0.60979-0.06687 0.79297-0.17969l1.252-0.77148c0.12417 0.05748 0.24852 0.11139 0.37891 0.16016l0.34961 1.4316-0.019531-0.10547c0.030979 0.23258 0.16861 0.57271 0.43945 0.78516s0.56636 0.25391 0.76953 0.25391h1.168c0.20318 0 0.51273-0.05034 0.77734-0.26367s0.38066-0.51471 0.41992-0.71094l-0.00781 0.04101 0.34961-1.4297c0.13059-0.04936 0.25606-0.103 0.37891-0.16016l1.2422 0.76953a1.0001 1.0001 0 0 0 2e-3 0c0.18326 0.11293 0.47754 0.2184 0.79297 0.17969 0.31543-0.03872 0.57019-0.20869 0.72461-0.36328a1.0001 1.0001 0 0 0 0.0039-2e-3l0.7793-0.78906c0.16884-0.15492 0.36454-0.45374 0.39258-0.7832s-0.08299-0.57627-0.16992-0.72852a1.0001 1.0001 0 0 0-0.01758-0.0293l-0.76953-1.2461c0.05378-0.11732 0.10085-0.23771 0.14844-0.36328l1.4277-0.3418-0.09961 0.017578c0.23285-0.031118 0.57116-0.16852 0.7832-0.43945s0.25391-0.56464 0.25391-0.76758v-1.1484c0-0.18069-0.0307-0.48577-0.24805-0.76562-0.21735-0.27986-0.51302-0.38796-0.67969-0.42969a1.0001 1.0001 0 0 0-0.01367-0.00195l-1.4082-0.33203c-0.05274-0.13695-0.09501-0.26671-0.15039-0.38672l0.75391-1.2246c0.10502-0.16356 0.22747-0.42009 0.20703-0.75391s-0.21458-0.64546-0.39453-0.81055l-0.79102-0.77734c-0.14462-0.14475-0.40396-0.32422-0.72266-0.36328-0.31869-0.039061-0.58703 0.063351-0.75 0.15039a1.0001 1.0001 0 0 0-0.05078 0.029297l-1.2344 0.75781c-0.12539-0.057907-0.25628-0.10785-0.39258-0.16016l-0.33594-1.3789c-0.036391-0.1941-0.14312-0.49597-0.41016-0.71875-0.26703-0.22278-0.58777-0.27539-0.79102-0.27539h-1.168zm0 1h1.168c0.13163 0 0.19354 0.053711 0.2168 0.17773l0.46484 1.916c0.50333 0.12403 0.96054 0.33177 1.3477 0.54883l1.6582-1.0156c0.11612-0.062021 0.20002-0.053962 0.29297 0.039062l0.82031 0.80664c0.09295 0.085272 0.09313 0.17858 0.02344 0.28711l-1.0215 1.6582c0.18581 0.34884 0.41895 0.83021 0.53516 1.3496l1.9043 0.44922c0.12387 0.031011 0.16992 0.085074 0.16992 0.22461v1.1484c0 0.13177-0.0538 0.20128-0.16992 0.2168l-1.9121 0.45703c-0.11621 0.48836-0.32615 0.96187-0.54297 1.3262l1.0293 1.666c0.06194 0.10848 0.0617 0.19401-0.03125 0.2793l-0.8125 0.82227c-0.09295 0.09305-0.18649 0.09911-0.28711 0.03711l-1.6641-1.0293c-0.38712 0.24034-0.8288 0.43254-1.3398 0.55664l-0.46484 1.9082c-0.023259 0.11625-0.085174 0.16992-0.2168 0.16992h-1.168c-0.13163 0-0.20131-0.05367-0.2168-0.16992l-0.46484-1.9082c-0.48783-0.11633-0.96046-0.3163-1.3398-0.55664l-1.6719 1.0293c-0.10067 0.062-0.19418 0.05594-0.28711-0.03711l-0.8125-0.81445c-0.09292-0.08529-0.0932-0.17856-0.03125-0.2793l1.0293-1.6738c-0.21681-0.37202-0.41901-0.83778-0.53516-1.3262l-1.9121-0.45703c-0.11616-0.015523-0.17773-0.085029-0.17773-0.2168v-1.1484c0-0.13953 0.05383-0.19359 0.17773-0.22461l1.9062-0.44922c0.11615-0.51938 0.33963-1.0008 0.5332-1.3496l-1.0293-1.6582c-0.06195-0.10853-0.06174-0.20191 0.02344-0.29492l0.82031-0.80664c0.09292-0.085272 0.17877-0.10102 0.29492-0.03125l1.6562 1.0156c0.34846-0.21705 0.86771-0.43261 1.3633-0.55664l0.45703-1.9082c0.015488-0.11627 0.085167-0.17773 0.2168-0.17773z" color="#000000" fill="#363636" stroke-linecap="round" stroke-linejoin="round" style="-inkscape-stroke:none"/>
</svg>
